X:105
T: Die verunglueckte Muellerstochter
N: Q0106B
O: Mitteleuropa, Oesterreich, Steiermark
R: Ballade, Unfall, Tod
M: 4/4
L: 1/16
K: G
G2A2 | B4B4B2d2c2B2 | B2A2A4z4
A2B2 | c4c4c2e2d2c2 | c2B2B4z4
B2c2 | d4d2d2e2c2g2e2 | e6d2d4
B2B2 | B3AA4A2e2d2c2 | c6B2B4

